assets/images/hanami_social_icon_BG.svg

<?xml version="1.0" encoding="UTF-8"?>
<svg width="224px" height="224px" viewBox="0 0 224 224" version="1.1" xmlns="http://www.w3.org/2000/svg" xmlns:xlink="http://www.w3.org/1999/xlink">
    <title>hanami_social_icon_BG</title>
    <defs>
        <path d="M0,0 L224,0 L224,224 L0,224 L0,0 Z" id="path-1"></path>
        <path d="M122.600988,31.826 L122.600988,40.942 C122.600988,45.44 121.665588,49.722 119.978788,53.604 C123.148788,50.8 126.932188,48.586 131.210588,47.196 L139.879388,44.38 C156.585588,38.952 174.555788,48.108 179.983788,64.814 C185.411988,81.52 176.255788,99.49 159.549588,104.918 L150.880788,107.736 C146.602388,109.126 142.240988,109.56 138.028588,109.154 C141.674388,111.302 144.947988,114.218 147.592188,117.856 L152.949788,125.23 C163.274788,139.442 160.119788,159.362 145.908588,169.686 C131.697588,180.012 111.777588,176.856 101.452588,162.646 L96.0949879,155.272 C93.4507879,151.632 91.6905879,147.618 90.7737879,143.486 C89.8571879,147.618 88.0969879,151.632 85.4527879,155.272 L80.0951879,162.646 C69.7701879,176.856 49.8501879,180.012 35.6389879,169.686 C21.4279879,159.362 18.2729879,139.442 28.5979879,125.23 L33.9555879,117.856 C36.5997879,114.218 39.8733879,111.302 43.5191879,109.154 C39.3067879,109.56 34.9453879,109.126 30.6669879,107.736 L21.9981879,104.918 C5.29204794,99.49 -3.86423206,81.52 1.56390794,64.814 C6.99204794,48.108 24.9621879,38.952 41.6683879,44.38 L50.3371879,47.196 C54.6155879,48.586 58.3989879,50.8 61.5687879,53.604 C59.8821879,49.722 58.9467879,45.44 58.9467879,40.942 L58.9467879,31.826 C58.9467879,14.26 73.2079879,0 90.7737879,0 C108.339788,0 122.600988,14.26 122.600988,31.826 Z" id="path-2"></path>
    </defs>
    <g id="hanami_social_icon_BG" stroke="none" fill="none" xlink:href="#path-1" fill-rule="evenodd">
        <use fill="#FFE6E1" xlink:href="#path-1"></use>
        <g id="hanami_icon" transform="translate(21.2864, 19.942)" xlink:href="#path-2">
            <path d="M43.5191879,109.154 C39.3067879,109.56 34.9453879,109.126 30.6669879,107.736 L21.9981879,104.918 C5.29204794,99.49 -3.86423206,81.52 1.56390794,64.814 C6.99204794,48.108 24.9621879,38.952 41.6683879,44.38 L50.3371879,47.196 C54.6155879,48.586 58.3989879,50.8 61.5687879,53.604 C59.8821879,49.722 58.9467879,45.44 58.9467879,40.942 L58.9467879,31.826 C58.9467879,14.26 73.2079879,0 90.7737879,0 C108.339788,0 122.600988,14.26 122.600988,31.826 L122.600988,40.942 C122.600988,45.44 121.665588,49.722 119.978788,53.604 C123.148788,50.8 126.932188,48.586 131.210588,47.196 L139.879388,44.38 C156.585588,38.952 174.555788,48.108 179.983788,64.814 C185.411988,81.52 176.255788,99.49 159.549588,104.918 L150.880788,107.736 C146.602388,109.126 142.240988,109.56 138.028588,109.154 C141.674388,111.302 144.947988,114.218 147.592188,117.856 L152.949788,125.23 C163.274788,139.442 160.119788,159.362 145.908588,169.686 C131.697588,180.012 111.777588,176.856 101.452588,162.646 L96.0949879,155.272 C93.4507879,151.632 91.6905879,147.618 90.7737879,143.486 C89.8571879,147.618 88.0969879,151.632 85.4527879,155.272 L80.0951879,162.646 C69.7701879,176.856 49.8501879,180.012 35.6389879,169.686 C21.4279879,159.362 18.2729879,139.442 28.5979879,125.23 L33.9555879,117.856 C36.5997879,114.218 39.8733879,111.302 43.5191879,109.154 Z" id="Fill-15" fill="#FF6C89"></path>
            <path d="M90.7737879,51.854 C113.290588,51.854 131.571388,70.134 131.571388,92.652 C131.571388,115.168 113.290588,133.45 90.7737879,133.45 C68.2571879,133.45 49.9763879,115.168 49.9763879,92.652 C49.9763879,70.134 68.2571879,51.854 90.7737879,51.854 Z" id="Fill-22" fill="#FFC9C4"></path>
            <path d="M70.6265879,91.88 C70.6265879,93.582 69.2439879,94.966 67.5409879,94.966 C65.8381879,94.966 64.4555879,93.582 64.4555879,91.88 C64.4555879,85.762 69.4219879,80.796 75.5393879,80.796 C81.6565879,80.796 86.6231879,85.762 86.6231879,91.88 C86.6231879,93.582 85.2405879,94.966 83.5375879,94.966 C81.8345879,94.966 80.4519879,93.582 80.4519879,91.88 C80.4519879,89.168 78.2507879,86.968 75.5393879,86.968 C72.8279879,86.968 70.6265879,89.168 70.6265879,91.88 Z" id="Fill-36" fill="#000000"></path>
            <path d="M101.172988,91.88 C101.172988,93.582 99.7903879,94.966 98.0875879,94.966 C96.3845879,94.966 95.0019879,93.582 95.0019879,91.88 C95.0019879,85.762 99.9683879,80.796 106.085788,80.796 C112.203188,80.796 117.169588,85.762 117.169588,91.88 C117.169588,93.582 115.786988,94.966 114.083988,94.966 C112.380988,94.966 110.998388,93.582 110.998388,91.88 C110.998388,89.168 108.797188,86.968 106.085788,86.968 C103.374388,86.968 101.172988,89.168 101.172988,91.88 Z" id="Fill-37" fill="#000000"></path>
        </g>
    </g>
</svg>

<svg height="224" viewBox="0 0 224 224" width="224" xmlns="http://www.w3.org/2000/svg" xmlns:xlink="http://www.w3.org/1999/xlink"><defs><path id="a" d="m0 0h224v224h-224z"/><path id="b" d="m122.600988 31.826v9.116c0 4.498-.9354 8.78-2.6222 12.662 3.17-2.804 6.9534-5.018 11.2318-6.408l8.6688-2.816c16.7062-5.428 34.6764 3.728 40.1044 20.434 5.4282 16.706-3.728 34.676-20.4342 40.104l-8.6688 2.818c-4.2784 1.39-8.6398 1.824-12.8522 1.418 3.6458 2.148 6.9194 5.064 9.5636 8.702l5.3576 7.374c10.325 14.212 7.17 34.132-7.0412 44.456-14.211 10.326-34.131 7.17-44.456-7.04l-5.3576001-7.374c-2.6442-3.64-4.4044-7.654-5.3212-11.786-.9166 4.132-2.6768 8.146-5.321 11.786l-5.3576 7.374c-10.325 14.21-30.245 17.366-44.4562 7.04-14.211-10.324-17.366-30.244-7.041-44.456l5.3576-7.374c2.6442-3.638 5.9178-6.554 9.5636-8.702-4.2124.406-8.5738-.028-12.8522-1.418l-8.6688-2.818c-16.70613996-5.428-25.86241996-23.398-20.43427996-40.104s23.39827996-25.862 40.10447996-20.434l8.6688 2.816c4.2784 1.39 8.0618 3.604 11.2316 6.408-1.6866-3.882-2.622-8.164-2.622-12.662v-9.116c0-17.566 14.2612-31.826 31.827-31.826 17.5660001 0 31.8272001 14.26 31.8272001 31.826z"/></defs><g fill="none" fill-rule="evenodd" xlink:href="#a"><use fill="#ffe6e1" xlink:href="#a"/><g transform="translate(21.2864 19.942)" xlink:href="#b"><path d="m43.5191879 109.154c-4.2124.406-8.5738-.028-12.8522-1.418l-8.6688-2.818c-16.70613996-5.428-25.86241996-23.398-20.43427996-40.104s23.39827996-25.862 40.10447996-20.434l8.6688 2.816c4.2784 1.39 8.0618 3.604 11.2316 6.408-1.6866-3.882-2.622-8.164-2.622-12.662v-9.116c0-17.566 14.2612-31.826 31.827-31.826 17.5660001 0 31.8272001 14.26 31.8272001 31.826v9.116c0 4.498-.9354 8.78-2.6222 12.662 3.17-2.804 6.9534-5.018 11.2318-6.408l8.6688-2.816c16.7062-5.428 34.6764 3.728 40.1044 20.434 5.4282 16.706-3.728 34.676-20.4342 40.104l-8.6688 2.818c-4.2784 1.39-8.6398 1.824-12.8522 1.418 3.6458 2.148 6.9194 5.064 9.5636 8.702l5.3576 7.374c10.325 14.212 7.17 34.132-7.0412 44.456-14.211 10.326-34.131 7.17-44.456-7.04l-5.3576001-7.374c-2.6442-3.64-4.4044-7.654-5.3212-11.786-.9166 4.132-2.6768 8.146-5.321 11.786l-5.3576 7.374c-10.325 14.21-30.245 17.366-44.4562 7.04-14.211-10.324-17.366-30.244-7.041-44.456l5.3576-7.374c2.6442-3.638 5.9178-6.554 9.5636-8.702z" fill="#ff6c89"/><path d="m90.7737879 51.854c22.5168001 0 40.7976001 18.28 40.7976001 40.798 0 22.516-18.2808 40.798-40.7976001 40.798-22.5166 0-40.7974-18.282-40.7974-40.798 0-22.518 18.2808-40.798 40.7974-40.798z" fill="#ffc9c4"/><g fill="#000"><path d="m70.6265879 91.88c0 1.702-1.3826 3.086-3.0856 3.086-1.7028 0-3.0854-1.384-3.0854-3.086 0-6.118 4.9664-11.084 11.0838-11.084 6.1172 0 11.0838 4.966 11.0838 11.084 0 1.702-1.3826 3.086-3.0856 3.086s-3.0856-1.384-3.0856-3.086c0-2.712-2.2012-4.912-4.9126-4.912s-4.9128 2.2-4.9128 4.912z"/><path d="m101.172988 91.88c0 1.702-1.3826001 3.086-3.0854001 3.086-1.703 0-3.0856-1.384-3.0856-3.086 0-6.118 4.9664-11.084 11.0838001-11.084 6.1174 0 11.0838 4.966 11.0838 11.084 0 1.702-1.3826 3.086-3.0856 3.086s-3.0856-1.384-3.0856-3.086c0-2.712-2.2012-4.912-4.9126-4.912s-4.9128 2.2-4.9128 4.912z"/></g></g></g></svg>
